app/dist/common/images/sunrise-new-energy-co-ltd.svg

<svg height="18" viewBox="0 0 18 18" width="18" xmlns="http://www.w3.org/2000/svg"><path d="m0 0h18v18h-18z" fill="#f0f3fa"/><path d="m10 5c0 .28-.45.5-1 .5s-1-.22-1-.5.45-.5 1-.5 1 .22 1 .5z"/><path d="m8 11.3 1.5-2.3-.25 1.69h.75l-1.5 2.31.22-1.7z" fill="#fb450b"/><path d="m6 9v3.61c0 1.32 1.22 2.39 2.73 2.39h.54c1.51 0 2.73-1.07 2.73-2.39v-3.61h-1.48v3.48c0 .73-.68 1.32-1.5 1.32-.84 0-1.52-.6-1.52-1.32v-3.48z"/><path d="m6 7.23c0-1.23 1.22-2.23 2.73-2.23h.54c1.51 0 2.73 1 2.73 2.23v.77h-1.48v-.27c0-.68-.68-1.23-1.5-1.23-.84 0-1.52.55-1.52 1.23v.27h-1.5zm-2-.23h1.43v.36h-1.43zm.29-2.5 1.85.98-.28.45-1.86-.98zm2.3-1.79.98 1.55-.45.24-.98-1.54zm7.41 4.29h-1.43v.36h1.43zm-.6-2.5-1.54.98.24.45 1.54-.98zm-1.99-1.79-.98 1.55.45.24.98-1.54zm-2.05-.71v1.79h-.72v-1.79z" fill="#fb450b"/></svg>

<!-- by TradingView --><svg width="18" height="18" viewBox="0 0 18 18" xmlns="http://www.w3.org/2000/svg"><path fill="#F0F3FA" d="M0 0h18v18H0z"/><path d="M10 5c0 .28-.45.5-1 .5S8 5.28 8 5s.45-.5 1-.5 1 .22 1 .5Z"/><path d="M8 11.3 9.5 9l-.25 1.69H10L8.5 13l.22-1.7H8Z" fill="#FB450B"/><path d="M6 9v3.61C6 13.93 7.22 15 8.73 15h.54c1.51 0 2.73-1.07 2.73-2.39V9h-1.48v3.48c0 .73-.68 1.32-1.5 1.32-.84 0-1.52-.6-1.52-1.32V9H6Z"/><path d="M6 7.23C6 6 7.22 5 8.73 5h.54C10.78 5 12 6 12 7.23V8h-1.48v-.27c0-.68-.68-1.23-1.5-1.23-.84 0-1.52.55-1.52 1.23V8H6v-.77ZM4 7h1.43v.36H4V7ZM4.29 4.5l1.85.98-.28.45L4 4.95l.29-.45ZM6.59 2.71l.98 1.55-.45.24-.98-1.54.45-.25ZM14 7h-1.43v.36H14V7ZM13.4 4.5l-1.54.98.24.45 1.54-.98-.24-.45ZM11.41 2.71l-.98 1.55.45.24.98-1.54-.45-.25ZM9.36 2v1.79h-.72V2h.72Z" fill="#FB450B"/></svg>
